static/assets/images/exchanges/uniswap.svg

<svg width="219" height="256" viewBox="0 0 219 256" fill="none" xmlns="http://www.w3.org/2000/svg">
<path fill-rule="evenodd" clip-rule="evenodd" d="M102.749 239.347C110.323 236.393 113.429 228.611 109.189 221.412C107.666 218.827 107.453 218.931 108.55 221.724C113.756 234.917 96.6222 241.264 89.488 229.861C84.3253 221.61 89.4596 212.877 98.6787 211.812C131.059 208.049 120.861 276.34 163.723 249.899C168.304 247.073 172.8 244.999 176.914 241.264C180.242 238.244 183.783 235.508 187.537 233.056C203.649 222.505 211.847 207.31 209.436 187.954C206.358 163.302 184.161 154.029 165.17 143.662C160.702 141.219 158.844 137.059 156.504 132.855C156.211 132.325 156.348 132.169 156.915 132.387C168.536 137.007 179.996 141.929 191.295 147.155C202.358 152.282 212.287 160.817 212.287 173.228C212.29 173.339 212.33 173.445 212.399 173.531C212.469 173.617 212.564 173.678 212.671 173.706C212.778 173.733 212.891 173.725 212.993 173.682C213.095 173.639 213.181 173.565 213.237 173.47C224.498 153.191 218.91 127.998 199.493 115.502C184.615 105.916 162.447 104.837 147.086 101.67C141.337 100.487 136.193 97.8595 131.655 93.7886C131.324 93.4857 131.097 93.1259 130.974 92.7094L128.393 84.2173C128.251 83.7534 128.369 83.6729 128.747 83.9759C139.711 92.5106 152.433 94.9815 165.992 95.4927C180.615 96.0466 195.366 96.6998 202.713 109.381C202.777 109.496 202.88 109.584 203.004 109.628C203.127 109.672 203.262 109.669 203.384 109.62C203.506 109.571 203.606 109.48 203.665 109.363C203.724 109.245 203.739 109.111 203.706 108.984C194.997 74.3193 163.34 52.947 128.279 53.7281C125.915 53.7754 120.946 54.3671 113.373 55.5032C112.871 55.5789 112.46 55.4227 112.139 55.0345C100.778 41.1177 88.2682 31.9724 69.7024 30.3677C67.6127 30.1878 65.8256 30.2304 64.3411 30.4955C63.9061 30.5712 63.6508 30.8268 63.5752 31.2623L63.1497 33.8327C63.074 34.306 62.8046 34.5901 62.3412 34.6847C61.0553 34.9498 60.4123 35.8445 60.4123 37.3687C60.3461 50.3956 64.2796 61.974 72.2128 72.104C72.4019 72.3312 72.3499 72.4116 72.0568 72.3454C66.9413 71.0768 63.4948 69.4437 61.7172 67.4461C36.2062 38.8361 -18.301 -22.0745 6.17011 8.25316C16.1847 20.6645 26.1988 32.1208 26.1988 32.1208C26.1988 32.1208 53.0938 62.8923 70.2555 82.3286C72 84.3167 72.3263 86.5888 71.4185 89.1592C64.6247 108.188 41.1798 90.9343 39.4637 116.851C38.9152 125.154 36.8823 133.044 33.3649 140.524C23.7912 160.845 27.493 168.812 45.3072 181.394C47.8696 183.211 49.6236 185.076 50.5691 186.989C58.6536 203.291 32.4571 212.607 20.3446 214.922C19.938 214.998 19.626 214.865 19.4085 214.524L19.1261 214.086C9.08039 198.496 -0.069367 184.296 8.55835 166.653C10.9128 161.867 16.118 155.889 19.8198 151.444C28.8215 140.614 33.9889 128.074 35.3221 113.826C35.8138 108.581 38.3006 103.422 42.7825 98.3471C45.7894 94.9531 44.2576 90.423 42.1159 86.461C35.3458 73.9737 29.9093 63.3988 20.9536 49.3059C15.9217 41.3876 12.558 35.835 7.52297 29.3878C7.49875 29.3524 7.46781 29.3221 7.4319 29.2986C7.39598 29.2752 7.35581 29.259 7.31366 29.2511C7.27152 29.2432 7.22823 29.2437 7.18627 29.2525C7.1443 29.2614 7.10449 29.2784 7.0691 29.3026C7.03371 29.3269 7.00344 29.3578 6.98002 29.3938C6.95659 29.4298 6.94046 29.47 6.93256 29.5122C6.92465 29.5544 6.92513 29.5977 6.93396 29.6397C6.94279 29.6818 6.9598 29.7216 6.98401 29.757C17.0163 47.7826 27.0439 65.7562 37.0667 83.6776C38.7309 86.6409 40.1681 89.6988 41.3784 92.8514C41.5556 93.3107 41.5937 93.8126 41.4878 94.2948C41.3819 94.777 41.1367 95.2182 40.7827 95.5637C34.3577 101.841 32.8684 106.995 31.6203 116.751C29.4361 133.949 21.3091 143.776 11.239 156.954C7.20148 162.256 4.67686 166.227 3.66513 168.868C-4.03638 188.948 9.84902 202.212 16.5152 218.926C16.6853 219.371 17.0068 219.641 17.4796 219.736C28.7411 222.122 38.4567 222.704 48.0729 216.498C48.47 216.233 48.905 216.105 49.3778 216.115C57.7553 216.209 65.3103 218.444 72.0426 222.817C81.9425 229.25 88.3817 244.957 102.749 239.347ZM63.1213 36.2752C74.4112 37.4255 84.0842 43.3615 87.5449 54.7505C91.2042 66.807 92.6934 75.5406 101.076 84.7853C101.171 84.8913 101.232 85.0229 101.253 85.1637C101.273 85.3045 101.252 85.4483 101.192 85.5771C101.131 85.7059 101.034 85.8139 100.912 85.8878C100.791 85.9616 100.65 85.998 100.508 85.9924C76.7089 85.1545 61.1357 58.4143 62.398 36.8859C62.4032 36.7974 62.4264 36.7109 62.466 36.6317C62.5057 36.5525 62.561 36.4822 62.6287 36.4251C62.6964 36.3679 62.7749 36.3252 62.8596 36.2994C62.9443 36.2737 63.0334 36.2654 63.1213 36.2752ZM116.238 60.6723C146.022 54.7221 175.977 66.4662 191.82 92.8798C191.858 92.9494 191.874 93.0284 191.868 93.1072C191.862 93.186 191.833 93.2614 191.785 93.3243C191.737 93.3872 191.672 93.435 191.598 93.4619C191.524 93.4888 191.443 93.4938 191.366 93.4762C174.715 89.1591 157.142 92.5532 141.016 85.3249C130.705 80.7239 122.492 70.7265 115.954 61.3965C115.67 61.0084 115.765 60.7669 116.238 60.6723ZM177.949 112.406C200.018 116.609 216.627 133.267 213.45 157.11C213.442 157.176 213.415 157.237 213.372 157.287C213.329 157.336 213.272 157.372 213.208 157.39C213.143 157.408 213.074 157.407 213.009 157.388C212.944 157.369 212.885 157.331 212.84 157.281C192.529 133.111 146.916 134.502 135.938 104.482C135.901 104.385 135.893 104.279 135.915 104.177C135.937 104.076 135.988 103.983 136.061 103.909C136.134 103.836 136.227 103.785 136.329 103.763C136.43 103.741 136.536 103.749 136.633 103.786C150.136 108.586 163.993 109.75 177.949 112.406ZM92.8494 122.347L78.496 126.294C77.3261 126.617 76.0763 126.462 75.0206 125.863C73.965 125.264 73.1898 124.27 72.8652 123.099L72.2695 120.941C71.4117 117.819 71.8098 114.489 73.3763 111.682C74.9428 108.875 77.5496 106.822 80.6234 105.973C82.1463 105.553 83.7381 105.441 85.3079 105.645C86.8777 105.849 88.3947 106.364 89.7724 107.16C91.15 107.957 92.3613 109.019 93.337 110.287C94.3128 111.555 95.0339 113.004 95.4591 114.55L96.0548 116.695C96.2162 117.276 96.2613 117.884 96.1875 118.484C96.1136 119.083 95.9223 119.662 95.6245 120.187C95.3267 120.712 94.9282 121.173 94.452 121.544C93.9758 121.914 93.4312 122.187 92.8494 122.347ZM110.649 176.608C128.279 174.393 149.114 171.297 149.738 148.377C149.861 143.993 149.341 140.06 148.178 136.576C148.127 136.409 148.139 136.228 148.212 136.068C148.285 135.907 148.413 135.78 148.572 135.709C148.731 135.638 148.909 135.629 149.072 135.685C149.235 135.74 149.372 135.855 149.455 136.008C163.737 162.265 145.583 180.953 119.783 181.436C108.598 181.654 97.9412 183.169 87.8144 185.98C87.3321 186.113 87.299 186.037 87.7151 185.753C95.2889 180.631 102.934 177.583 110.649 176.608ZM165.127 149.925C174.677 154.317 183.584 159.723 191.849 166.142C209.322 179.718 207.805 204.64 195.011 220.659C194.929 220.761 194.818 220.835 194.693 220.871C194.568 220.908 194.434 220.905 194.311 220.863C194.187 220.821 194.079 220.743 194.002 220.638C193.924 220.532 193.88 220.406 193.877 220.275C193.551 202.24 181.835 187.386 172.261 173.001C167.666 166.071 163.893 158.175 164.432 150.336C164.47 149.863 164.702 149.726 165.127 149.925ZM94.9485 198.037C112.422 196.517 127.215 205.918 129.754 223.414C130.738 230.249 131.858 236.441 133.116 241.989C133.141 242.122 133.116 242.26 133.046 242.377C132.976 242.493 132.866 242.58 132.736 242.62C132.607 242.661 132.467 242.652 132.343 242.596C132.22 242.539 132.121 242.44 132.066 242.315C128.955 234.846 125.698 227.944 122.294 221.61C116.252 210.349 96.452 201.388 86.7932 214.879C83.862 218.95 83.3703 223.797 85.3181 229.421C85.7909 230.803 85.5734 230.921 84.6657 229.776C77.9428 221.293 69.3005 215.906 58.7387 213.615C58.0484 213.464 57.9775 213.166 58.5259 212.721C69.2012 204.124 81.3421 199.23 94.9485 198.037Z" fill="#F7499D"/>
<path d="M88.062 112.29C87.9559 111.848 87.7406 111.436 87.4285 111.079C87.1163 110.722 86.7134 110.426 86.2426 110.208C85.7719 109.99 85.2426 109.855 84.6849 109.81C84.1273 109.765 83.5523 109.811 82.9926 109.946C81.8624 110.217 80.8636 110.833 80.2159 111.657C79.5682 112.481 79.3247 113.446 79.539 114.339C79.6451 114.782 79.8603 115.193 80.1725 115.55C80.4847 115.908 80.8876 116.204 81.3584 116.422C81.8291 116.639 82.3584 116.775 82.9161 116.82C83.4737 116.865 84.0487 116.819 84.6084 116.684C85.7386 116.412 86.7374 115.797 87.3851 114.973C88.0328 114.149 88.2762 113.184 88.062 112.29Z" fill="#F7499D"/>
</svg>

<svg xmlns="http://www.w3.org/2000/svg" fill="none" viewBox="0 0 219 256"><path fill="#F7499D" fill-rule="evenodd" d="M102.749 239.347c7.574-2.954 10.68-10.736 6.44-17.935q-2.285-3.878-.639.312c5.206 13.193-11.928 19.54-19.062 8.137-5.163-8.251-.028-16.984 9.19-18.049 32.381-3.763 22.183 64.528 65.045 38.087 4.581-2.826 9.077-4.9 13.191-8.635a85 85 0 0 1 10.623-8.208c16.112-10.551 24.31-25.746 21.899-45.102-3.078-24.652-25.275-33.925-44.266-44.292-4.468-2.443-6.326-6.603-8.666-10.807q-.44-.795.411-.468a683 683 0 0 1 34.38 14.768c11.063 5.127 20.992 13.662 20.992 26.073a.506.506 0 0 0 .384.478.51.51 0 0 0 .566-.236c11.261-20.279 5.673-45.472-13.744-57.968-14.878-9.586-37.046-10.665-52.407-13.832q-8.624-1.775-15.431-7.881a2.34 2.34 0 0 1-.681-1.08l-2.581-8.492q-.213-.696.354-.241c10.964 8.535 23.686 11.005 37.245 11.517 14.623.554 29.374 1.207 36.721 13.888a.54.54 0 0 0 .993-.397c-8.709-34.665-40.366-56.037-75.427-55.256q-3.546.072-14.906 1.775-.753.114-1.234-.468c-11.361-13.917-23.87-23.063-42.437-24.667q-3.135-.27-5.36.128-.654.112-.767.766l-.425 2.57q-.113.71-.809.853-1.929.398-1.929 2.684-.099 19.54 11.8 34.735.285.341-.155.241-7.673-1.902-10.34-4.899C36.207 38.836-18.3-22.074 6.17 8.253 16.185 20.665 26.2 32.121 26.2 32.121s26.895 30.771 44.057 50.208c1.744 1.988 2.07 4.26 1.162 6.83-6.793 19.029-30.238 1.775-31.954 27.692q-.823 12.454-6.1 23.673c-9.573 20.321-5.871 28.288 11.943 40.87q3.845 2.725 5.262 5.595c8.085 16.302-18.112 25.618-30.224 27.933q-.61.114-.936-.398l-.283-.438C9.08 198.496-.069 184.296 8.558 166.653c2.355-4.786 7.56-10.764 11.262-15.209q13.503-16.246 15.502-37.618.738-7.867 7.46-15.479c3.007-3.394 1.476-7.924-.666-11.886-6.77-12.487-12.207-23.062-21.162-37.155-5.032-7.918-8.396-13.471-13.431-19.918a.33.33 0 0 0-.454-.085.327.327 0 0 0-.085.454q15.048 27.04 30.083 53.92a70 70 0 0 1 4.311 9.174c.178.46.216.962.11 1.444a2.53 2.53 0 0 1-.705 1.269c-6.425 6.277-7.915 11.431-9.163 21.187-2.184 17.198-10.31 27.025-20.381 40.203q-6.056 7.953-7.574 11.914c-7.701 20.08 6.184 33.344 12.85 50.058q.255.668.965.81c11.261 2.386 20.977 2.968 30.593-3.238a2.2 2.2 0 0 1 1.305-.383q12.566.142 22.665 6.702c9.9 6.433 16.339 22.14 30.706 16.53M63.121 36.275c11.29 1.15 20.963 7.087 24.424 18.476 3.66 12.056 5.148 20.79 13.531 30.034a.727.727 0 0 1-.164 1.103.7.7 0 0 1-.404.104c-23.8-.838-39.372-27.578-38.11-49.106a.654.654 0 0 1 .723-.61m53.117 24.397c29.784-5.95 59.739 5.794 75.582 32.208a.41.41 0 0 1-.035.444.41.41 0 0 1-.419.152c-16.651-4.317-34.224-.923-50.35-8.151-10.311-4.601-18.524-14.599-25.062-23.928q-.426-.583.284-.725m61.711 51.734c22.069 4.203 38.678 20.861 35.501 44.704a.33.33 0 0 1-.242.28.36.36 0 0 1-.368-.109c-20.311-24.17-65.924-22.779-76.902-52.799a.538.538 0 0 1 .695-.696c13.503 4.8 27.36 5.964 41.316 8.62m-85.1 9.941-14.353 3.947a4.57 4.57 0 0 1-3.475-.431 4.6 4.6 0 0 1-2.156-2.764l-.596-2.158a12.32 12.32 0 0 1 1.107-9.259 11.95 11.95 0 0 1 7.247-5.709 11.9 11.9 0 0 1 4.685-.328c1.57.204 3.087.719 4.464 1.515a12.2 12.2 0 0 1 3.565 3.127 12.4 12.4 0 0 1 2.122 4.263l.596 2.145a4.59 4.59 0 0 1-3.206 5.652m17.8 54.261c17.63-2.215 38.465-5.311 39.089-28.231q.185-6.576-1.56-11.801a.72.72 0 0 1 .394-.867.68.68 0 0 1 .883.299c14.282 26.257-3.872 44.945-29.672 45.428q-16.778.327-31.969 4.544-.723.2-.099-.227 11.361-7.683 22.934-9.145m54.478-26.683a136.2 136.2 0 0 1 26.722 16.217c17.473 13.576 15.956 38.498 3.162 54.517a.63.63 0 0 1-.7.204.63.63 0 0 1-.434-.588c-.326-18.035-12.042-32.889-21.616-47.274-4.595-6.93-8.368-14.826-7.829-22.665q.057-.71.695-.411m-70.179 48.112c17.474-1.52 32.267 7.881 34.806 25.377q1.476 10.253 3.362 18.575a.556.556 0 0 1-.773.607.56.56 0 0 1-.277-.281q-4.666-11.204-9.772-20.705c-6.042-11.261-25.842-20.222-35.5-6.731q-4.398 6.106-1.476 14.542.709 2.073-.652.355-10.084-12.724-25.927-16.161-1.035-.226-.213-.894 16.013-12.895 36.422-14.684" clip-rule="evenodd"/><path fill="#F7499D" d="M88.062 112.29a2.85 2.85 0 0 0-.633-1.211 3.5 3.5 0 0 0-1.186-.871 4.6 4.6 0 0 0-1.558-.398 5.4 5.4 0 0 0-1.692.136c-1.13.271-2.13.887-2.777 1.711s-.891 1.789-.677 2.682c.106.443.321.854.633 1.211a3.5 3.5 0 0 0 1.186.872c.471.217 1 .353 1.558.398a5.4 5.4 0 0 0 1.692-.136c1.13-.272 2.13-.887 2.777-1.711s.891-1.789.677-2.683"/></svg>
